!!!COM:	L. van Beethoven
!!!OTL:	Op. 59 No. 2 Movement 1 Cello
**kern	**dynam
*I"Cello	*
*clefF4	*
*k[f#]	*
*e:	*
*M6/8	*
=1	=1
!LO:TX:a:t=Allegro	!
4E'	f
8r	.
4D#X'	.
8r	.
=2!|:	=2!|:
2.r	.
=3	=3
(8EL	pp
8BB	.
8GJ	.
[4.B)	.
=4	=4
4B]	.
(8BB	.
4EE')	.
8r	.
=5	=5
2.r	.
=6	=6
(8FFnL	pp
8CC	.
8AAJ)	.
[4.C	.
=7	=7
4C]	.
(8C	.
4FFn')	.
8r	.
=8	=8
2.r	.
=9	=9
2.r	.
=10	=10
2.d#X	p
=11	=11
!!linebreak:original
4r	.
8r	.
(8AAL	p
8FF#	<
[8CJ)	[
=12	=12
(4.C]	>
4.BB)	]
=13	=13
[2.BB	<
=14	=14
2.BB]	[
=15	=15
8E	[
8r	.
8r	.
8AA	.
8r	.
8r	.
=16	=16
2.r	.
=17	=17
2.r	.
=18	=18
8r	.
8AA#XL	.
!LO:TX:b:i:t=cresc.	!
8AA#J	.
8BBL	.
8BB	.
8BBJ	.
=19	=19
4C'	f
8r	.
4DD#X'	.
8r	.
=20	=20
2.r	.
=21	=21
!!linebreak:original
2.E	p
=22	=22
2.E	.
=23	=23
4E	.
8r	.
4AA	.
8r	.
=24	=24
2.r	.
=25	=25
8r	.
!LO:TX:b:i:t=cresc.	!
16r	.
(16FFnLL	.
16GG	.
16AAJJ	.
16BBLL	.
16C	.
16D	.
16E)	.
16Fn'	.
16AA-X'JJ	.
=26	=26
4.GG	ff
4.GG	.
=27	=27
4C	.
8r	.
4r	.
8r	.
=28	=28
4.FF#X	sf
4.FF#	.
=29	=29
4GG	.
8r	.
4r	.
8r	.
=30	=30
4.EE-X	sf
4.EE-	.
=31	=31
!!linebreak:original
!LO:TX:b:i:t=sempre	!
[4.DD	.
(8.DDL]	f
16EE-XL	.
16CC	.
16CC#XJJ)	.
=32	=32
[4.DD	.
8.DDL]	.
(16AAL	.
16DD	.
16AAJJ)	.
=33	=33
(16DDLL	.
16CC#X	.
16DD	.
16CC#	.
16DD	.
16CC#JJ)	.
[4.DD	sf
=34	=34
2.DD_	.
=35	=35
(8.DDL]	p
16FF#L	.
16EE	.
16GGJJ	.
8.FF#L	.
16AAL	.
16GG#X	.
16BBJJ)	.
=36	=36
4AA	.
8r	.
4r	.
8r	.
=37	=37
(8.FF#L	.
16AAL	.
16GG#X	.
16BBJJ	.
8.AAL	.
16CL	.
16BB	.
16DJJ)	.
=38	=38
!!linebreak:original
4C	.
8r	.
4r	.
(8C	.
=39	=39
4BB)	.
8r	.
4C	.
8r	.
=40	=40
4D	.
8r	.
8GG	.
16r	.
(16eLL	.
16d	.
16cJJ)	.
=41	=41
(4.B	.
4c)	.
(16cLL	.
16eJJ)	.
*clefG2	*
=42	=42
!LO:TX:b:i:t=cresc.	!
(16ff#LL	.
16aa	.
16ff#	.
16aa	.
16ff#	.
16aaJJ	.
16ff#LL	.
16aa	.
16ff#	.
16aa	.
16ff#	.
16aaJJ)	.
=43	=43
(4.gg	p
!LO:TX:b:i:t=dolce	!
4.cc)	.
*clefF4	*
=44	=44
(16dLL	.
16F#	.
16A	.
16G	.
16F#	.
16EJJ)	.
4.D	.
=45	=45
!!linebreak:original
4.G	.
(16CLL	.
16D	.
16C	.
16BB	.
16AA	.
16GGJJ)	.
=46	=46
(16FF#LL	.
16GG	.
16AA	.
16GG	.
16FF#	.
16EEJJ	.
16DDLL)	.
(16D	.
16C#X	.
16D	.
16E	.
16F#JJ)	.
=47	=47
4.G	.
[4.C#X	.
=48	=48
!LO:TX:b:i:t=cresc.	!
8C#L]	.
8D	.
8DJ	.
8DL	.
8D	.
8DJ	.
=49	=49
8.E-XL	f
16D'L	.
16Cn'	.
16D'JJ	.
8.E-L	.
16D'L	sf
16C'	.
16C'JJ	.
=50	=50
2.r	.
=51	=51
!!linebreak:original
8r	.
8r	.
(<8FF#	p
8GGL	.
!LO:TX:b:i:t=dolce	!
8AA	.
8BBJ	.
=52	=52
8CL	.
8D	.
8EJ)	.
4.D	.
=53	=53
8.E-XL	f
16D'L	.
16C'	.
16C'JJ	.
8.BBL	sf
16BB'L	.
16BB'	.
16BB-X'JJ	.
=54	=54
8.AAL	sf
16AA'L	.
16AA'	.
16AA-X'JJ	.
8.GGL	sf
16GG'L	.
16CC'	.
16CC#X'JJ	.
=55	=55
8DD	.
8r	.
8r	.
4r	.
8r	.
=56	=56
2.r	.
=57	=57
8r	.
(8DDL	.
[8DJ)	.
4.D_	>
=58	=58
4D]	]
[8C#X	pp
4C#]	.
[8Cn	.
=59	=59
!!linebreak:original
8C]	.
[8BBL	.
8BB'J]	.
[8BBL	.
8BB'J]	.
[8C	.
=60	=60
8CL]	.
[8C#X	.
8C#J]	.
[8DL	.
8D]	.
[8E-XJ	.
=61	=61
!LO:TX:b:i:t=cresc.	!
8E-]	.
[8EnL	.
8EJ]	.
[8EL	.
8EJ]	.
[8E	.
=62	=62
8E]	.
[8E-XL	.
8E-J]	.
[8E-L	.
8E-J]	.
[8E-	.
=63	=63
8E-]	.
[8DL	.
!LO:TX:b:i:t=piu cresc.	!
8DJ]	.
[8DL	.
8DJ]	.
[8D	.
=64	=64
!!linebreak:original
8D]	.
[8DDL	f
8DDJ]	.
[8DDL	.
8DDJ]	.
8DD'	.
=65	=65
16GGLL	sf
(16DD	.
16GG)	.
(16DD	.
16GG)	.
(16DDJJ	.
16GGLL)	.
(16DD	.
16GG)	.
(16DD	.
16GG)	.
(16DDJJ	.
=66	=66
16FF#LL)	.
(16DD	sf
16FF#)	.
(16DD	.
16FF#)	.
(16DDJJ	.
16FF#LL)	.
(16DD	.
16FF#)	.
(16DD	.
16FF#)	.
(16DDJJ	.
=67	=67
16GGLL)	sf
(16DD	.
16GG)	.
(16DD	.
16GG)	.
(16DDJJ	.
16GGLL)	.
(16DD	.
16GG)	.
(16DD	.
16GG)	.
(16DDJJ	.
=68	=68
!!linebreak:original
16FF#LL)	sf
(16DD	.
16FF#)	.
(16DD	.
16FF#)	.
(16DDJJ	.
16FF#LL)	.
(16DD	.
16FF#)	.
(16DD	.
16FF#)	.
16DDJJ	.
=69	=69
(16dLL	sf
16B)	.
16G'	.
16D'JJ	.
16BB'LL	.
16GG'JJ	.
4FF#	.
8BB	.
=70	=70
4E'	f
8r	.
4D#X'	.
8r	.
=71:|!	=71:|!
(16dLL	.
16B-X)	.
16G'	.
16D'JJ	.
16BB-X'LL	.
16GG'JJ	.
4FFn	.
8BB-	.
=72	=72
4EE-X'	ff
8r	.
4DD'	.
8r	.
=73	=73
2.r	.
=74!|:	=74!|:
!!linebreak:original
4E-X'	p
8r	.
4D'	.
8r	.
=75	=75
2.r	.
=76	=76
4D#X'	pp
8r	.
4C#X'	.
8r	.
=77	=77
2.r	.
=78	=78
4BB'	ff
8r	.
4AA#X'	.
8r	.
=79	=79
2.r	.
=80	=80
(8BBL	pp
8FF#X	.
8DJ	.
[4.F#X)	.
=81	=81
(4.F#]	.
4G)	.
8r	.
=82	=82
2.r	.
=83	=83
(8CL	.
8GG	.
8E-XJ	.
[4.G)	.
=84	=84
(4.G]	.
[4.A-X)	.
=85	=85
!!linebreak:original
4.A-]	.
(8AA-XL	.
8EE-X	.
8CJ)	.
=86	=86
[4.E-X	.
8E-L]	.
(>16F#XL	.
16D-X	.
16BB-X	.
16GGJJ)	.
=87	=87
(8FFnL	.
8EE-X)	.
8EE-'J	.
(8BB-XL	.
8EE-	.
8D-XJ)	.
=88	=88
[4.E-X	.
8E-L]	.
(16cL	.
16A-X	.
16E-	.
16CJJ)	.
=89	=89
(8BB-XL	.
8AA-X)	.
8AA-'J	.
(8AA-L	.
8GG-X)	.
8GG-'J	.
=90	=90
(8GG-XL	.
8FFn)	.
8FF'J	.
[8FFL	.
8FF]	.
8FF'J	.
=91	=91
[2.FFn	.
=92	=92
2.FF_	.
=93	=93
!!linebreak:original
8FFL]	pp
8r	.
8FFnJ	.
8r	.
8FF	.
8r	.
=94	=94
8FFnL	.
8r	.
8FFJ	.
8r	.
8FF	.
8r	.
=95	=95
!LO:TX:b:i:t=cresc.	!
8GG-XL	.
8r	.
8GG-J	.
8r	.
8GG-	.
8r	.
=96	=96
8GG-XL	.
8r	.
8GG-J	.
8r	.
4GG-	.
=97	=97
8F#XL	.
8r	.
8F#J	.
8r	.
4F#	.
=98	=98
8F#XL	.
8r	.
8F#J	f
8r	.
8F#	.
8r	.
=99	=99
[2.F#	.
=100	=100
2.F#]	p
=101	=101
!!linebreak:original
8F#L	pp
8r	.
8F#J	.
8r	.
8F#	.
8r	.
=102	=102
8F#L	.
8r	.
8F#J	.
8r	.
8F#	.
8r	.
=103	=103
8F#L	.
!LO:TX:b:i:t=cresc.	!
8r	.
8F#J	.
8r	.
8F#	.
8r	.
=104	=104
8F#L	.
8r	.
8F#J	.
8r	.
8F#	.
8r	.
=105	=105
8FnL	.
8r	.
8FJ	.
8r	.
8F	.
8r	.
=106	=106
8DL	.
8r	.
8DJ	.
8r	.
8D	.
!LO:TX:b:i:t=il	!
8r	.
=107	=107
8BBL	.
8r	f
8BBJ	.
8r	.
8BB	.
8r	.
=108	=108
!!linebreak:original
!LO:TX:b:i:t=piu	!
8GGL	.
8r	f
8GGJ	.
8r	.
8GG	.
8r	.
=109	=109
4CC'	ff
8r	.
4GG'	.
8r	.
=110	=110
2.r	.
=111	=111
!LO:TX:b:i:t=sempre	!
16cLL	.
16B	.
16c	.
16e	ff
16d	.
16cJJ	.
16BLL	.
16c	.
16d	.
16c	.
16B	.
16cJJ	.
=112	=112
16BLL	.
16A	.
16G	.
16A	.
16G	.
16FnJJ	.
16ELL	.
16F	.
16E	.
16D	.
16C	.
16BBJJ	.
=113	=113
4AA'	.
8r	.
4E'	.
8r	.
=114	=114
2.r	.
=115	=115
!!linebreak:original
16ALL	.
16G#X	.
16A	.
16c	.
16B	.
16AJJ	.
16G#LL	.
16A	.
16G#	.
16Fn	.
16E	.
16FJJ	.
=116	=116
16ELL	.
16D	.
16C	.
16D	.
16C	.
16BBJJ	.
16AALL	.
16BB	.
16C	.
16BB	.
16AA	.
16BBJJ	.
=117	=117
[2.AA	pp
=118	=118
2.AA]	.
=119	=119
4AA	.
8r	.
4DD	.
8r	.
=120	=120
2.r	.
=121	=121
2.r	.
=122	=122
8r	.
8D#XL	.
8D#J	.
(8EL	.
8E	.
8EJ)	.
=123	=123
!!linebreak:original
!LO:TX:b:i:t=poco ritard	!
8.AL	<
!	!LO:DY:a
(16AL	<
16c	.
16AJJ)	[
[4.G#X	>
=124	=124
(16G#LL]	<
16A	.
16B	.
16A	.
16c	[
16AJJ)	>
[4.G#X	.
=125	=125
!LO:TX:a:t=a tempo	!
(16G#LL]	]
16G#X	.
16A	.
16B	.
16c	.
16EJJ	.
16FnLL	.
16Gn	.
16A	.
16C#X	.
16D	.
16EJJ	.
=126	=126
16FnLL	.
16AA	.
16BB-X	.
16Cn	.
16D	.
16FFnJJ	.
16GGLL	.
16AA	.
16BB-	.
16FF	.
16GG	.
16AAJJ	.
=127	=127
!!linebreak:original
!LO:TX:b:i:t=cresc.	!
16BB-XLL	.
16FFn	.
16GG	.
16AA	.
16BB-	.
16FFJJ	.
16GGLL	.
16AA	.
16BB-	.
16FF	.
16GG	.
16AAJJ	.
=128	=128
16BB-XLL	.
16FFn	.
16GG	.
16AA	.
16BB-	.
16FFJJ	.
16GGLL	.
16AA	.
16BB-	.
16FF	.
16GG	.
16AAJJ)	.
=129	=129
16BB-XLL	ff
16BB-	.
16BB-	.
16BB-	.
16BB-	.
16BB-JJ	.
16BB-LL	.
16BB-	.
16BB-	.
16BB-	.
16BB-	.
16BB-JJ	.
=130	=130
4BBn	.
8r	.
4r	.
16GGLL	.
16GGJJ	.
=131	=131
16CCLL	.
16C	.
16C	.
16C	.
16C	.
16CJJ	.
16CLL	.
16C	.
16C	.
16C	.
16C	.
16CJJ	.
=132	=132
!!linebreak:original
4C#X	.
8r	.
4r	.
16AALL	.
16AAJJ	.
=133	=133
16DDLL	.
16D	.
16D	.
16D	.
16D	.
16DJJ	.
16DLL	.
16D	.
16D	.
16D	.
16D	.
16DJJ	.
=134	=134
4D#X	.
8r	.
4r	.
16BBLL	.
16BBJJ	.
=135	=135
[4.E	ff
4E]	.
8DnT	.
(>16qqC/LL	.
16qqD/JJ	.
=136	=136
8C)	.
8r	.
(8BBt	.
16qqAA/LL	.
16qqBB/JJ	.
8AA)	.
8r	.
(8GGT	.
16qFF#X/LL	.
16qqGG/JJ	.
=137	=137
[4.FF#)	sf
4FF#]	.
(8EET	.
16qqDD#X/LL	.
16qqEE/JJ	.
=138	=138
8DD#X)	.
8r	.
(8DD#t	.
16qqCC#X/LL	.
16qDD#X/JJ	.
8EE)	.
8r	.
(8AA#Xt	.
16qGG##X/LL	.
16qqAA#X/JJ	.
=139	=139
!!linebreak:original
8BB)	.
8r	.
(8BBt	.
16qqAAn/LL	.
16qqBB/JJ	.
8C)	.
8r	.
(8FF#t	.
16qqEE/LL	.
16qqFF#/JJ	.
=140	=140
8GG)	.
8r	.
(8GGT	.
16qqFF#X/LL	.
16qqGG/JJ	.
8AA)	.
8r	.
(8DD#Xt	.
16qqCC#X/LL	.
16qqDD#X/JJ	.
=141	=141
4EE')	.
8r	ff
4BB'	.
8r	.
=142	=142
2.r	.
=143	=143
(16ELL	ff
16G	.
16F#	.
16E	.
16D#X	.
16EJJ)	.
4D#	.
8r	.
=144	=144
4r	.
8r	.
16r	.
(16cLL	.
16B	p
16A	.
16G	.
16F#JJ)	.
=145	=145
!!linebreak:original
(8EL	pp
8BB	.
8GJ	.
[4.B)	.
=146	=146
4B]	.
(8BB	.
4EE')	.
8r	.
=147	=147
2.r	.
=148	=148
8FFnL	pp
(8CC	.
8AAJ	.
[4.C)	.
=149	=149
4.C_	.
(16CLL]	.
16D	.
16BB-X	.
16GG	.
16EE	.
16CCJJ	.
=150	=150
4FFn')	.
8r	.
4r	.
8r	.
=151	=151
2.r	.
=152	=152
(4.c	.
4.B)	p
=153	=153
4r	.
8r	.
(8DD#XL	<
8CC	.
[8FF#J)	sf
=154	=154
2.FF#]	>
=155	=155
!!linebreak:original
[2.EE	<
=156	=156
2.EE]	[
=157	=157
!LO:TX:b:i:t=sempre	!
4E	[
8r	.
4AA	p
8r	.
=158	=158
2.r	.
=159	=159
4r	.
16r	.
(16ELL	.
16F#X	.
16G#XJJ	.
8A')	.
8r	.
=160	=160
16rD	.
(16ELL	.
16Fn	.
16GnJJ	.
16A')	.
16r	.
8r	.
16r	.
(<16CLL	.
16D	.
16EJJ	.
=161	=161
!LO:TX:b:i:t=cresc.	!
16FnLL)	.
(16CC	.
16DD	.
16EE	.
16FFn	.
16CCJJ	.
16DDLL	.
16EE	.
16FF	.
16CC	.
16DD	.
16EEJJ)	.
=162	=162
!!linebreak:original
(16FFnLL	f
16C	.
16D	.
16EJJ)	.
16Fn'LL	.
16F'JJ	.
16FLL	.
16F	.
16F	.
16F	.
16F	.
16FJJ	.
=163	=163
[4.Fn	ff
4F]	.
(8FFnT	.
=164	=164
4EE)	.
8r	.
4r	.
8r	.
=165	=165
[4.D	sf
4D]	.
(8DDT	.
=166	=166
4CC)	.
8r	.
4r	.
8r	.
=167	=167
4BB	.
8r	.
4r	.
16BBLL	.
16BBJJ	.
=168	=168
16AA#XLL	ff
(16AA#	.
16E	.
16C#X	.
16G	.
16EJJ	.
16C#LL	.
16AA#	.
16G	.
16E	.
16C#	.
16AA#JJ)	.
=169	=169
!!linebreak:original
[4.BB	.
8.BBL]	.
(16CnL	.
16AAn	.
16AA#X'JJ)	.
=170	=170
[4.BB	.
8.BBL]	.
(16F#L	.
16BB	.
16F#JJ)	.
=171	=171
(16BBLL	.
16AA#X	.
16BB	.
16AA#	.
16BB	.
16AA#JJ)	.
[4.BB	sf
=172	=172
2.BB_	.
=173	=173
(8.BBL]	p
16D#XL	.
16C#X	.
16EJJ	.
8.D#L	.
16F#XL	.
16E#X	.
16G#XJJ)	.
=174	=174
4F#X	.
8r	.
4r	.
8r	.
=175	=175
!!linebreak:original
(8.D#XL	.
16F#L	.
16E#X	.
16G#XJJ	.
8.F#L	.
16AL	.
16G#	.
16BJJ)	.
=176	=176
4A	.
8r	.
4r	.
8r	.
=177	=177
(16BBLL	.
16AA	.
16BB	.
16AA	.
16BB	.
16AAJJ	.
16BBLL	.
16AA	.
16BB	.
16AA	.
16BB	.
16AAJJ)	.
=178	=178
(16BBLL	.
16AA	.
16BB	.
16AA	.
16BB	.
16AAJJ	.
16BBLL	.
16AA	.
16BB	.
16AA	.
16BB	.
16AAJJ)	.
=179	=179
(16BBLL	.
16AA	.
16BB	.
16AA	.
16BB	.
16AAJJ	.
16BBLL	.
16AA	.
16BB	.
16AA	.
16BB	.
16AAJJ)	.
=180	=180
(16BBLL	.
16AA	.
16BB	.
16AA	.
16BB	.
16AAJJ	.
16BBLL	.
16AA	.
16BB	.
16AA	.
16BB	.
16AAJJ)	.
=181	=181
(16GG#XLL	.
16E	.
16GG#	.
16E	.
16GG#	.
16EJJ)	.
(16AALL	.
16E	.
16AA	.
16E	.
16AA	.
16EJJ)	.
=182	=182
!!linebreak:original
(16BBLL	.
16D#X	.
16BB	.
16D#	.
16BB	.
16D#JJ)	.
8E	.
16r	.
(16c#XLL	.
16B	.
16AJJ)	.
=183	=183
(4.G#X	.
4.A)	.
=184	=184
!LO:TX:b:i:t=cresc.	!
(16d#XLL	.
16f#	.
16d#	.
16f#	.
16d#	.
16f#JJ	.
16d#LL	.
16f#	.
16d#	.
16f#	.
16d#	.
16f#JJ)	.
=185	=185
(4.e	p
!LO:TX:b:i:t=dolce	!
4.A)	.
=186	=186
(16BLL	.
16D#X	.
16F#	.
16E	.
16D#	.
16C#XJJ)	.
4.BB	.
=187	=187
4.BB 4.E	.
(16ALL	.
16AAJJ	.
16ALL	.
16G#X	.
16F#)	.
16EJJ	.
=188	=188
!!linebreak:original
(16D#XLL	.
16E	.
16F#	.
16E	.
16D#	.
16C#XJJ	.
8.BBL)	.
(16BBL	.
16C#	.
16D#JJ)	.
=189	=189
4.E	.
[4.AA#X	.
=190	=190
!LO:TX:b:i:t=cresc.	!
(8AA#L]	.
8BB)	.
8BBJ	.
(8BBL	.
8BB)	.
8BB'J	.
=191	=191
8.CL	.
16BB'L	f
16AAn'	.
16BB'JJ	.
8.CL	.
16BB'L	sf
16AA'	.
16AA'JJ	.
=192	=192
8.c#XL	sf
16B'L	.
16A#X'	.
16B'JJ	.
8.c#L	.
16B'L	sf
16A#X'	.
16A#'JJ	.
=193	=193
4An	>
[8AA	.
(8AAL]	]
8GG#X)	p
!LO:TX:b:i:t=dolce	!
[8C#XJ	.
=194	=194
!!linebreak:original
(8C#L]	.
8BB	.
8AA#XJ)	.
4BB	.
8BB	.
=195	=195
8.CnL	f
16BB'L	.
16AAn'	.
16AA'JJ	.
8.GG#XL	.
16GG#L	sf
16GG#	.
16GGnJJ	.
=196	=196
8.FF#L	sf
16F#L	.
16F#	.
16FnJJ	.
8.EL	sf
16EL	.
16A	.
16A#XJJ	.
=197	=197
[2.B	.
=198	=198
(4.B]	]
4A#X	p
8An	.
=199	=199
8G#X)	.
(8BBL	.
[8BJ)	.
4B]	.
[8BB	.
=200	=200
4BB]	pp
[8AA#X	.
4AA#]	.
[8AAn	.
=201	=201
!!linebreak:original
8AA]	.
[8GG#XL	.
8GG#J]	.
[8GG#L	.
8GG#J]	.
[8AA	.
=202	=202
8AA]	.
[8AA#XL	.
8AA#J]	.
[8BBL	.
8BBJ]	.
[8C	.
=203	=203
8C]	.
!LO:TX:b:i:t=cresc.	!
[8C#XL	.
8C#J]	.
[8C#L	.
8C#J]	.
[8C#	.
=204	=204
8C#]	.
[8CnL	.
8CJ]	.
[8CL	.
8CJ]	.
[8C	.
=205	=205
8C]	.
!LO:TX:b:i:t=cresc.	!
!LO:TX:b:i:t=piu	!
[8BBL	.
8BBJ]	.
[8BBL	.
8BBJ]	.
[8BB	.
=206	=206
8BB]	.
[8BBL	f
8BBJ]	.
[8BBL	.
8BBJ]	.
8BB	.
=207	=207
!!linebreak:original
16ELL	.
(16BB	sf
16E)	.
(16BB	.
16E)	.
(16BBJJ	.
16ELL)	.
(16BB	.
16E)	.
(16BB	.
16E)	.
(16BBJJ	.
=208	=208
16D#XLL)	.
(16BB	sf
16D#)	.
(16BB	.
16D#)	.
(16BBJJ	.
16D#LL)	.
(16BB	.
16D#)	.
(16BB	.
16D#)	.
(16BBJJ	.
=209	=209
16ELL)	sf
(16BB	.
16E)	.
(16BB	.
16E)	.
(16BBJJ	.
16ELL)	.
(16BB	.
16E)	.
(16BB	.
16E)	.
(16BBJJ	.
=210	=210
16D#XLL)	.
(16BB	sf
16D#)	.
(16BB	.
16D#)	.
(16BBJJ	.
16D#LL)	.
(16BB	.
16D#)	.
(16BB	.
16D#)	.
(16BBJJ	.
=211	=211
!!linebreak:original
4E)	.
8r	.
[4.Dn	.
=212	=212
4.D_	p
8DL]	.
(8Fn	.
8BB-XJ)	.
=213	=213
4E-X'	f
8r	.
4D'	.
8r	.
=214	=214
2.r	.
=215:|!	=215:|!
(16BLL	.
16G)	.
16En'	.
16BB'JJ	.
16GG'LL	.
16EE'JJ	.
4DD	.
8GG	.
=216	=216
4CC'	ff
8r	.
4BB'	.
8r	.
=217	=217
2.r	.
=218	=218
4C	p
8r	.
4BB	.
8r	.
=219	=219
2.r	.
=220	=220
(<4C'	pp
8r	.
4BB-X')	.
8r	.
=221	=221
2.r	.
=222	=222
!!linebreak:original
4GG#X	f
8r	.
[4.GGn	f
=223	=223
2.GG]	>
=224	=224
[2.GG#X	p
=225	=225
!LO:TX:b:i:t=piu	!
2.GG#_	.
=226	=226
2.GG#_	p
=227	=227
2.GG#]	.
=228	=228
2.AA	.
=229	=229
2.FFn	.
=230	=230
2.GG	.
=231	=231
2.GG#X	.
=232	=232
(2.AA	.
=233	=233
4.BB	.
4.C)	.
=234	=234
8CL	.
8r	pp
8CJ	.
8r	.
8C	.
8r	.
=235	=235
8CL	.
8r	.
8CJ	.
8r	.
8C	.
8r	.
=236	=236
!!linebreak:original
8BBL	.
!LO:TX:b:i:t=cresc.	!
8r	.
8BBJ	.
8r	.
8BB	.
8r	.
=237	=237
8BBL	.
8r	.
8BBJ	.
8r	.
8BB	.
8r	.
=238	=238
8BBL	.
8r	.
8BBJ	.
8r	.
8BB	.
8r	.
=239	=239
8BBL	.
8r	ff
8BBJ	.
8r	.
8BB	.
8r	.
=240	=240
8BBL	.
8r	.
8BBJ	.
8r	.
8BB	.
8r	.
=241	=241
8BBL	.
8r	.
8BBJ	.
8r	.
8BB	.
8r	.
=242	=242
8BBL	.
8r	.
8BBJ	.
8r	.
8BBL	.
[8BBJ	.
=243	=243
4.BB]	.
[4.BB	ff
=244	=244
4.BB]	.
[4.BB	.
=245	=245
!!linebreak:original
2.BB_	>
=246	=246
8BB]	]
8r	p
8r	.
4r	.
8r	.
=247	=247
[2.e	pp
=248	=248
2.e]	.
=249	=249
4e	.
8r	.
4A	.
8r	.
=250	=250
2.r	.
=251	=251
4r	.
8r	.
8AA	pp
8r	.
(8AA	.
=252	=252
!LO:TX:b:i:t=cresc.	!
8BB)	.
8r	.
(8BB	.
8AA)	.
8r	.
(8AA	.
=253	=253
8GG)	.
8r	.
(8GG	.
8AA)	.
8r	.
(8AA	.
=254	=254
!!linebreak:original
8BB)	.
8r	.
(8BB	.
8AA)	.
8r	.
(8AA	.
=255	=255
8GG)	.
8r	.
(8GG	.
8AA)	.
8r	.
(8AA	.
=256	=256
8BBL)	.
8BB	.
8BBJ	.
8BBL	f
8BB	.
8BBJ	.
=257	=257
(8EL	ff
8BB	.
8GJ)	.
[4.B	.
=258	=258
(16BLL]	.
16c	.
16A	.
16F#	.
16D#X	.
16BBJJ)	.
!LO:TX:b:i:t=dim.	!
8EL	.
8EE	.
8EEJ	.
=259	=259
8EEL	.
8EE	p
8EEJ	.
8EEL	.
8EE	.
8EEJ	.
=260	=260
4EE	.
8r	.
4EE	.
8r	.
=261	=261
4EE	.
8r	.
4r	.
8r	.
==262	==262
!!linebreak:original
*k[f#c#g#d#]	*
*E:	*
*M4/4	*
*met(c)	*
!LO:TX:a:B:t=Molto Adagio	!
1r	.
=263	=263
2r	.
(2C#	.
=264	=264
2Cn	p
4BB	.
4AA	.
=265	=265
2.BB)	.
4r	.
=266	=266
1r	.
=267	=267
!LO:TX:b:i:t=cresc.	!
(2BB	.
2BB#X	.
=268	=268
2C#)	f
2BBn	>
=269	=269
4EE	]
4r	p
(4BB	.
4AA	.
=270	=270
2GG#)	.
2FF#	.
=271	=271
2AA	.
2GG#)	.
=272	=272
(2BB#X	.
2C#)	.
=273	=273
2.BBn	.
4r	.
=274	=274
!!linebreak:original
(2E#X	.
2F#	.
=275	=275
!LO:TX:b:i:t=cresc.	!
1BB#X)	.
=276	=276
2C#	.
2BB	f
=277	=277
4EE	]
4r	p
2r	.
=278	=278
1r	.
=279	=279
1r	.
=280	=280
!LO:TX:b:i:t=espress.	!
(<2BB	.
2D#)	.
=281	=281
1E	.
=282	=282
(2BB#X	.
2GG#)	.
=283	=283
!LO:TX:b:i:t=cresc.	!
(2C#	.
2BBn)	.
=284	=284
4AA#X	f
8.AA#L	p
16AA#Jk	.
8.BBL	.
16C#k	.
8.C#	.
16C#Jk	.
=285	=285
1F#	.
=286	=286
!LO:TX:b:i:t=cresc.	!
(8.F#L	.
*clefG2	*
16ggnJk)	.
8.ff#L	.
16eeJk	.
8.ddnL	.
16cc#k	.
8.b	.
16cc#Jk	.
=287	=287
!!linebreak:original
!LO:TX:b:i:t=piu cresc.	!
4..a#X	.
16b	.
8.cc#L	.
16dd#Xk	.
8.ee	.
16cc#Jk	.
=288	=288
4..dd#	.
16cc#	p
8..bL	.
32f#kk	.
8..b	.
32cc#Jkk	.
=289	=289
(4..dd#	.
16ee	.
2ff#)	.
=290	=290
(4.gg#	>
8g#)	]
(<4b	.
4a#X)	.
*clefF4	*
=291	=291
4..BB	f
16C#	.
8..D#L	.
32Ekk	.
8..D#	.
32C#Jkk	.
=292	=292
(4..BB	.
16AA#X	>
8..GG#L	.
32FF#kk	.
8..EE	.
32DD#Jkk)	]
=293	=293
(8.CC#L	p
16DD#k	.
8EE	.
8EE#XJ)	.
!LO:TX:b:i:t=cresc.	!
4FF#	.
4F#	.
=294	=294
!!linebreak:original
(4F#'	.
4r	p
!LO:TX:b:i:t=mancando	!
4c#'	.
4r	.
=295	=295
4A#X'	.
4r	.
4B')	.
4r	.
*clefG2	*
=296	=296
(2aan	.
12gg#L	.
12ff#	.
12eeJ	.
12dd#L	.
12cc#	.
12bJ)	.
=297	=297
!LO:TX:b:i:t=cresc.	!
4a#X	.
(4ggn	.
12ff#L	.
12ee	.
12dd#J	.
12cc#L	.
12b	.
12a#XJ)	.
=298	=298
(2b	.
!LO:TX:b:i:t=e dolce	!
!LO:TX:a:i:t=sempre	!
2f#	p
*clefF4	*
=299	=299
2G#	.
2D#	.
=300	=300
2E	.
2BB)	.
=301	=301
2C#	.
(>12F#L	.
12E	.
12D#J	.
12C#L	.
12BB	.
12AA#XJ)	.
=302	=302
!!linebreak:original
(12GG#L	.
12FF#	.
12EEJ	.
12DD#L	.
!LO:TX:b:i:t=cresc.	!
12CC#	.
12BBB#XJ	.
12CC#L	.
12DD#	.
12EEJ	.
12FF#L	.
12GG#	.
12AA#XJ	.
=303	=303
12BBL	.
12C#	.
12D#J	.
12EL	.
12F#	.
12G#J	.
[2F#)	f
=304	=304
1F#_	>
=305	=305
1F#_	]
=306	=306
1F#_	p
=307	=307
1F#_	.
=308	=308
4F#]	.
4r	.
2r	.
=309	=309
12BB'L	.
12BB'	.
12BB'J	.
8BB'	.
8r	.
12BB'L	.
12BB'	.
12BB'J	.
8BB'	.
8r	.
=310	=310
!!linebreak:original
12BB'L	.
12BB'	.
12BB'J	.
8BB'	.
8r	.
12BB'L	.
12BB'	.
12BB'J	.
8BB'	.
8r	.
=311	=311
12BB'L	.
12BB'	.
12BB'J	.
8BB'	.
8r	.
12BB'L	.
12BB'	.
12BB'J	.
8BB'	.
8r	.
=312	=312
12BB'L	.
12BB'	.
12BB'J	.
8BB'	.
8r	.
12BB'L	.
12BB'	.
12BB'J	.
8BB'	.
8r	.
=313	=313
(2d#	.
2c#	.
=314	=314
2e	.
2d#)	.
=315	=315
(2f##X	.
4g#	.
4e)	.
=316	=316
!!linebreak:original
(2f#X	.
4F#)	.
4r	.
=317	=317
(2BB	pp
[2GGn)	.
=318	=318
!LO:TX:b:i:t=cresc.	!
2GG]	.
2FF#	.
=319	=319
2AA	ff
2AA	f
=320	=320
12DDn'L	p
12DD'	.
12DD'J	.
8DD'	.
8r	.
12DDn'L	.
12DD'	.
12DD'J	.
8DD'	.
8r	.
=321	=321
12DDn'L	.
12DD'	.
12DD'J	.
8DD'	.
8r	.
12DDn'L	.
12DD'	.
12DD'J	.
8DD'	.
8r	.
=322	=322
12DDn'L	.
12DD'	.
12DD'J	.
8DD'	.
8r	.
12DD'L	.
12DD'	.
12DD'J	.
8DD'	.
8r	.
=323	=323
!!linebreak:original
12CCn'L	.
12CC'	.
12CC'J	.
8CC'	.
8r	.
12FFn'L	.
12FF'	.
12FF'J	.
8FF'	.
8r	.
=324	=324
(2BB-X	.
2AA)	pp
=325	=325
(2Cn	.
2BBn)	.
=326	=326
(<2Dn	.
2C#X)	.
=327	=327
(2E	.
!LO:TX:b:i:t=cresc.	!
2D#X)	.
=328	=328
(2F#	.
2E#X)	.
=329	=329
!LO:TX:b:i:t=piu cresc.	!
12G#L	.
12G#	.
12G#J	.
12G#L	.
12G#	.
12G#J	.
12G#L	.
12G#	f
12G#J	.
12G#L	.
12G#	.
12G#J	.
=330	=330
12AL	ff
12A	.
12AJ	.
12AL	.
12A	.
12AJ	.
12AL	.
12A	.
12AJ	.
12AL	.
12A	.
12AJ	.
=331	=331
12BL	p
12BB	.
12BBJ	.
8BB	.
8r	.
12C#L	.
12C#	.
12C#J	.
8C#	.
8r	.
=332	=332
!!linebreak:original
12AAL	f
12AA	.
12AAJ	.
12AAL	.
12AA	.
12AAJ	.
12AAL	.
12AA	.
12AAJ	.
12AAL	.
12AA	.
12AAJ	.
=333	=333
12BBL	p
12BB	.
12BBJ	.
8BB	.
8r	.
12C#L	.
12C#	.
12C#J	.
8C#	.
8r	.
=334	=334
12r	.
12AAL	.
12AAJ	.
8AA	.
8r	.
12r	.
12BBL	.
12BBJ	.
8BB	.
8r	.
=335	=335
[2.BB	.
12BBL]	.
12BB	.
12BBJ	.
=336	=336
[2.BB	.
12BBL]	.
12BB	.
12BBJ	.
=337	=337
1Cn	f
=338	=338
[2.BB	p
12BBL]	.
12BB	.
12BBJ	.
=339	=339
!!linebreak:original
1CCn 1Cn	.
=340	=340
4BB	p
8.BL	.
16BBJk	.
4BB	.
8.BL	.
16BBJk	.
=341	=341
4BB	.
8.BL	.
16BBJk	.
4BB	.
8.BL	.
16BBJk	.
=342	=342
!LO:TX:b:i:t=dim.	!
4BB	.
8.BL	.
16BBJk	.
4BB	.
8.BL	.
16BBJk	.
=343	=343
4BB	.
8.BL	.
16BBJk	.
4BB	.
8.BL	.
16BBJk	.
=344	=344
8.BB'L	.
16AA#X'k	pp
8.BB'	.
16AA#'Jk	.
8.BB'L	.
16AA#'k	.
8.BB'	.
16AA#'Jk	.
=345	=345
!LO:TX:b:i:t=cresc.	!
8.BB'L	.
16AAn'k	.
8.BB'	.
16AA'Jk	.
8.BB'L	f
16AA'k	>
8.BB'	.
16AA'Jk	.
=346	=346
!!linebreak:original
[8GG#L	]
16GG#'L]	p
16BB'J	.
[8AA	.
16AA'L]	.
16GG#'JJ	.
[8FF#L	.
16FF#'L]	.
16EE'JJ	.
[8DD#L	.
16DD#'L]	.
16CC#'JJ	.
=347	=347
[8BBB#XL	.
16BBB#X'L]	.
16GG#'JJ	.
[8AA#X'L	.
16AA#L]	.
16BB#X'JJ	.
[8C#L	.
16C#'L]	.
16BBn'JJ	.
8.AAn'L	.
16GG#'Jk	.
=348	=348
[8FF#L	.
16FF#'L]	.
16BB'JJ	.
[8C#L	.
16C#'L]	.
16D#'JJ	.
[8EL	.
16E'L]	.
16D#'JJ	.
[8C#L	.
16C#'L]	.
16AA'JJ	.
=349	=349
[8BBL	.
16BB'L]	.
16E'JJ	.
[8G#L	.
16G#'L]	.
16A#X'JJ	.
[8BL	.
16B'L]	.
16An'JJ	.
[8G#L	.
16G#'L]	.
16F#'JJ	.
=350	=350
!!linebreak:original
[8E#XL	.
16E#X'L]	.
16D#'J	.
[8C#	.
16C#'L]	.
16E#X'JJ	.
[8F#L	.
16F#'L]	.
16En'J	.
[8D#	.
16D#L]	.
16C#'JJ	.
=351	=351
!LO:TX:b:i:t=cresc.	!
[8BB#XL	.
16BB#X'L]	.
16AA#X'J	.
[8GG#	.
16GG#'L]	.
16FF#'JJ	.
[8EEL	.
16EE'L]	.
16DD#'J	.
[8CC#	.
16CC#'L]	.
16BBB#X'JJ	.
=352	=352
[8CC#XL	f
16CC#'L]	.
16EE'JJ	.
[8AA#XL	.
16AA#'L]	.
16C#'JJ	.
[8BBnL	>
16BB'L]	.
16D#'JJ	.
[8F#L	.
16F#'L]	.
16B'JJ	.
=353	=353
(8EE'L	]
16r	p
!LO:TX:b:i:t=espress.	!
16G#'k)	.
(8E'	.
16r	.
16G#'Jk)	.
(8BB'L	.
16r	.
16G#'k)	.
(8E'	.
16r	.
16G#'Jk)	.
=354	=354
!!linebreak:original
!LO:TX:b:i:t=sempre staccato	!
8BB'L	.
16r	.
16F#'k	.
8D#'	.
16r	.
16F#'Jk	.
8BB'L	.
16r	.
16An'k	.
8F#'	.
16r	.
16A'Jk	.
=355	=355
8BB'L	.
!LO:TX:b:i:t=espress.	!
16r	.
16G#'k	.
8E'	.
16r	.
16G#'Jk	.
8BB'L	.
16r	.
16G#'k	.
8E'	.
16r	.
16G#'Jk	.
=356	=356
8BB'L	.
16r	.
16A'k	.
8F#'	.
16r	.
16A'Jk	.
8BB'L	.
16r	.
16A'k	.
8F#'	.
16r	.
16A'Jk	.
=357	=357
8E'L	.
16r	.
16B'k	.
8G#'	.
16r	.
16B'Jk	.
8E'L	.
16r	.
16B'k	.
8G#'	.
16r	.
16B'Jk	.
=358	=358
!!linebreak:original
8E'L	.
16r	.
16dn'k	.
8B'	.
16r	.
16d'Jk	.
8E'L	.
16r	.
16B'k	.
8G#'	.
16r	.
16B'Jk	.
=359	=359
8E#XL	.
16r	.
16c#k	.
8G#	.
16r	.
16c#Jk	.
8C#L	.
16r	.
16G#k	.
8E#	.
16r	.
16G#Jk	.
=360	=360
!LO:TX:a:i:t=staccato	!
!LO:TX:b:i:t=cresc.	!
(2FF#	.
2AA)	.
=361	=361
4GG#	.
8.BB#XL	f
16BB#Jk	p
8.C#L	.
16D#k	.
8.D#	.
16D#Jk	.
=362	=362
4GG#	.
!LO:TX:b:i:t=cresc.	!
8.BB#XL	.
16BB#Jk	.
8.C#L	.
16F#k	.
8.F#	.
16F#Jk	.
=363	=363
!!linebreak:original
4F#	fp
8.D#L	.
16D#Jk	.
8.EL	.
16F#k	.
8.F#	.
16F#Jk	.
=364	=364
1Bn	.
=365	=365
(8.BL	.
!LO:TX:b:i:t=cresc.	!
16cccnJk)	.
8.bbL	.
16aaJk	.
8.gg#XL	.
16ff#Xk	.
8.ee	.
16ff#Jk	.
*clefG2	*
=366	=366
8.dd#L	.
16eek	.
8.ff#	.
16gg#Jk	.
8.aaL	.
16dd#k	.
8.ee	.
16ff#Jk	.
=367	=367
4..gg#	.
16ff#	p
8..eeL	.
32bkk	.
8..ee	.
32ff#Jkk	.
=368	=368
(4..gg#	.
16aa	.
2bb)	.
=369	=369
(4.ccc#	>
8cc#)	]
(4ee	.
4dd#)	.
=370	=370
!!linebreak:original
*clefF4	*
4..E	.
16F#X	f
8..G#XL	.
32Akk	.
8..G#X	.
32F#XJkk	.
=371	=371
(4..E	.
16D#	>
8..C#L	.
32BBkk	.
8..AA	.
32GG#Jkk)	]
=372	=372
(8.FF#L	.
16GG#k	p
8AA	.
8AA#XJ)	.
(4BB	.
!LO:TX:b:i:t=cresc.	!
4B)	.
=373	=373
(4B'	.
4r	p
4f#'	.
4r	.
=374	=374
!LO:TX:b:i:t=mancando	!
4d#X'	.
4r	.
4e')	.
4r	.
*clefG2	*
=375	=375
!LO:TX:b:i:t=poco cresc.	!
(2dddn	.
12ccc#L	.
12bb	.
12aaJ	.
12gg#L	.
12ff#	.
12eeJ)	.
=376	=376
!!linebreak:original
!LO:TX:b:i:t=cresc.	!
(4dd#X	.
4cccn	.
12bbL	.
12aa	.
12gg#J	.
12ff#L	.
12ee	.
12dd#J)	.
=377	=377
(2ee	.
2b)	p
*clefF4	*
=378	=378
(2c#	.
2G#)	.
=379	=379
(2A	.
2E)	.
=380	=380
(2F#	.
12BL	.
12A	.
12G#J	.
12F#L	.
12E	.
12D#J)	.
=381	=381
(12C#L	.
12BB	.
12AAJ	.
12GG#L	.
!LO:TX:b:i:t=cresc.	!
12FF#	.
12EEJ	.
12DD#L	.
12CC#	.
12BBB#XJ	.
12CC#L	.
12DD#	.
12EEJ)	.
=382	=382
!!linebreak:original
(12FF#L	.
12EE	.
12DD#J	.
12EEL	.
12FF#	.
12GG#J	.
12AAL	.
12BBn	.
12C#J	.
12D#L	.
12E	.
12F#J)	.
=383	=383
(12EL	.
12F#	.
12G#J	.
12AL	.
12B	.
12c#J)	.
[2B	f
=384	=384
1B_	.
=385	=385
1B_	]
=386	=386
1B_	p
=387	=387
1B_	.
=388	=388
1B_	.
=389	=389
!LO:TX:b:i:t=cresc.	!
4B]	.
(4BB'	.
4BB'	.
4BB')	.
=390	=390
!	!LO:DY:a
12EE'L	p
12EE'	.
12EE'J	.
8EE'	.
8r	.
12EE'L	.
12EE'	.
12EE'J	.
8EE'	.
8r	.
=391	=391
!!linebreak:original
12EE'L	.
12EE'	.
12EE'J	.
8EE'	.
8r	.
12EE'L	.
12EE'	.
12EE'J	.
8EE'	.
8r	.
=392	=392
12EE'L	.
12EE'	.
12EE'J	.
8EE'	.
8r	.
12EE'L	.
12EE'	.
12EE'J	.
8EE'	.
8r	.
=393	=393
12EE'L	.
12EE'	.
12EE'J	.
8EE'	.
8r	.
12EE'L	.
12EE'	.
12EE'J	.
8EE'	.
8r	.
=394	=394
12EE'L	.
12EE'	.
12EE'J	.
8EE'	.
8r	.
12EE'L	.
12EE'	.
12EE'J	.
8EE'	.
8r	.
=395	=395
!!linebreak:original
12EE'L	.
12EE'	.
12EE'J	.
8EE'	.
8r	.
12EE'L	.
12EE'	.
12EE'J	.
8EE'	.
8r	.
=396	=396
!LO:TX:b:i:t=cresc.	!
8EE	.
8r	.
4r	.
(12BL	.
12A	.
12G#J	.
12F#L	.
12E	.
12D#J)	.
=397	=397
(12C#L	.
12BB	.
12AAJ	.
12GG#L	.
12FF#	.
12EEJ)	.
8DD#	.
8r	p
8EE	.
!LO:TX:b:i:t=cresc.	!
8r	.
=398	=398
8FF#	.
8r	.
8GG#	.
8r	.
8AA	.
8r	.
8AA#X	.
8r	.
=399	=399
2BB	.
[2Cn	ff
=400	=400
!!linebreak:original
2C]	sf
[2C#X	sf
=401	=401
2C#]	.
[2E#X	sf
=402	=402
2E#]	.
[2F#	sf
=403	=403
2F#]	.
[2BB#X	sf
=404	=404
2BB#]	.
2BBn	sf
=405	=405
1BB	p
=406	=406
12EE'L	.
12EE'	.
12EE'J	.
8EE'	.
8r	.
12EE'L	.
12EE'	.
12EE'J	.
8EE'	.
8r	.
=407	=407
12EE'L	.
12EE'	.
12EE'J	.
8EE'	.
8r	.
12EE'L	.
12EE'	.
12EE'J	.
8EE'	.
8r	.
=408	=408
!!linebreak:original
12EE'L	.
12EE'	.
12EE'J	.
8EE'	.
8r	.
12EE'L	.
12EE'	.
12EE'J	.
8EE'	.
8r	.
=409	=409
12EE'L	.
12EE'	.
12EE'J	.
8EE'	.
8r	.
12EE'L	.
12EE'	.
12EE'J	.
8EE'	.
8r	.
=410	=410
12EE'L	.
12EE'	.
12EE'J	.
8EE'	.
8r	.
12EE'L	.
12EE'	.
12EE'J	.
8EE'	.
8r	.
=411	=411
!LO:TX:b:i:t=dim.	!
12EE'L	.
12EE'	.
12EE'J	.
8EE'	.
8r	.
12EE'L	.
12EE'	.
12EE'J	.
8EE'	.
8r	.
=412	=412
1EE	.
=413	=413
!!linebreak:original
[1E	.
=414	=414
2E_	.
(<12EL]	.
12D#	.
12C#J	.
12BBL	.
12AA#X	.
12C#J)	.
=415	=415
(12BBL	.
12AAn	.
12GG#J	.
12FF#L	.
12EE	.
12DD#J	.
12EEL	.
12DD#	.
12FF#J	.
12EEL	.
12DD#	.
12FF#J)	.
=416	=416
(12EEL	.
12DD#	.
12FF#J	.
12EEL	.
12DD#	.
12FF#J	.
12EEL	.
12DD#	.
12FF#J	.
12EEL	.
12DD#	.
12FF#J)	.
=417	=417
8EE	.
8r	.
4r	.
8EE	.
8r	.
4r	.
=418	=418
1EE;	<
==419	==419
!!linebreak:original
*k[f#]	*
*G:	*
*M3/4	*
!LO:TX:a:B:t=Allegretto	!
4EE	[
4r	pp
4r	.
=420!|:	=420!|:
4BB	.
4r	.
4r	.
=421	=421
4BB	.
4r	.
4r	.
=422	=422
4E	.
4r	.
4r	.
=423	=423
4E	.
4r	.
4r	.
=424	=424
!LO:TX:b:i:t=cresc.	!
4C#X	.
4r	.
4r	.
=425	=425
4AA	.
4r	f
4r	.
=426	=426
4D	.
4r	p
4BB	.
=427	=427
4EE	pp
4r	.
4r	.
=428:|!	=428:|!
4D	.
4r	p
4r	.
=429	=429
4FF#	.
8r	pp
8F#'	.
8F#'	.
8r	.
=430!|:	=430!|:
!!linebreak:original
4GG	.
8r	.
8G'	.
4G'	.
=431	=431
4GG#X	.
8r	.
8G#X'	.
4G#'	.
=432	=432
4AA	.
8r	.
8AL	.
8AJ	.
8r	.
=433	=433
4AA	p
!LO:TX:b:i:t=cresc.	!
8r	.
8AL	.
8AJ	.
8r	.
=434	=434
4GG#X	.
8r	.
8G#XL	.
8G#J	.
8r	.
=435	=435
4EE	.
8r	.
8EL	.
8EJ	.
8r	.
=436	=436
4AA	.
8r	.
8AAL	.
8FF#X	.
8FF#J	sf
=437	=437
4FFn	f
8r	.
8CC'	.
4FFn'	.
=438	=438
!!linebreak:original
4CC	.
8r	.
8CC	.
4GG	.
=439	=439
4CC	.
8r	.
8CC	.
4EE	.
=440	=440
4CC	.
8r	.
8CC	.
4FFn	.
=441	=441
8r	.
8CC'	ff
(4.FFn	.
8AA)	.
=442	=442
8r	.
8CC'	.
(4.FFn	.
8AA)	.
=443	=443
8r	.
8CC'	.
(4.FFn	.
8AA)	.
=444	=444
[2.BB	ff
=445	=445
4BB]	[
8r	p
8d#XL	.
8d#J	.
8r	.
=446	=446
4E	.
8r	.
8eL	.
8eJ	.
8r	.
=447	=447
!!linebreak:original
4B	.
8r	.
8f#L	.
8f#J	.
8r	.
=448	=448
4E	.
!LO:TX:b:i:t=cresc.	!
4r	.
[4CC	.
=449	=449
8CCL]	ff
8CCJ	.
(4.FFn	.
8AA)	.
=450	=450
8r	.
8CC	.
(4.FFn	.
8AA)	.
=451	=451
8r	.
8CC	.
(4.FFn	.
8AA)	.
=452	=452
[2.BB	ff
=453	=453
4BB]	[
8r	p
8d#XL	.
8d#J	.
8r	.
=454	=454
4E	.
8r	.
8eL	.
8eJ	.
8r	.
=455	=455
4B	.
8r	.
8BL	.
8BJ	.
8r	.
=456	=456
!!linebreak:original
*clefG2	*
2.ee	.
=457	=457
[2.ff#X	pp
=458	=458
2.ff#]	.
=459	=459
(2.gg	.
=460	=460
2.aa	.
=461	=461
2.bb	.
=462	=462
2.b	.
=463	=463
2ee)	.
4ff#)	.
=464	=464
(2ff#	.
4ee)	.
=465	=465
(2ee	.
!LO:TX:b:i:t=cresc.	!
4ff#)	.
=466	=466
(2ff#	.
4ee)	.
=467	=467
(2ff#	.
[4ee)	.
=468	=468
4ee]	.
[2ff#	f
=469	=469
(2ff#]	.
4ee)	>
=470	=470
!!linebreak:original
4ee	]
4r	p
4r	.
*clefF4	*
=471	=471
4BB	.
4r	.
4r	.
=472	=472
4EE	.
4EE	pp
4EE	.
=473	=473
4FF#	.
8r	.
8F#L	.
8F#J	.
8r	.
*clefG2	*
=474:|!	=474:|!
4ee	.
4r	p
4r	.
*clefF4	*
=475	=475
4BB	.
4r	.
4r	.
=476	=476
4EE	.
=||	=||
*k[f#c#g#d#]	*
*E:	*
!LO:TX:a:B:t=Maggiore	!
4r	.
4r	.
=477	=477
2.r	.
=478	=478
2.r	.
=479	=479
2.r	.
=480	=480
2.r	.
=481	=481
2.r	.
=482	=482
4r	.
(12D#L	p
12C#	.
12BBJ	.
12AA#XL	.
12GG#	.
12AA#J)	.
=483	=483
!!linebreak:original
(12BBL	.
12AA#X	.
12GG#J)	.
12FF#L	.
12FF#	.
12FF#J	.
(12FF#L	.
12GG#	.
12AA#J)	.
=484	=484
(12BBL	.
12AA#X	.
12BBJ	.
12C#L	.
12BB	.
12C#J	.
12D#L	.
12C#	.
12D#J)	.
=485	=485
!LO:TX:b:i:t=cresc.	!
(>12EL	.
12F#	.
12EJ	.
12D#L	.
12C#	.
12BBJ	.
12AA#XL	.
12GG#	.
12FF#J)	.
=486	=486
(12BBL	.
12C#	.
12D#J	.
12EL	.
12F#	.
12G#J	.
12F#L	.
12G#	.
12F#J)	.
=487	=487
!!linebreak:original
(12E#XL	sf
12F#	.
12E#J	>
12F#L	.
12G#	.
12F#J	.
12EnL	.
12F#	.
12EJ)	.
=488	=488
(4D#	]
8E)	.
8r	p
8BB'	.
8r	.
=489	=489
(8EL	.
8F#J)	.
8G#'	.
8r	.
8G#'	.
8r	.
=490	=490
(8G#L	.
8BJ)	.
8A'	.
8r	.
8G#'	.
8r	.
=491	=491
!LO:TX:b:i:t=cresc.	!
!LO:TX:b:i:t=cresc.	!
8F#'	.
8r	.
8E'	.
8r	.
8F#'	.
8r	.
=492	=492
(2G#	.
4E)	.
=493	=493
(2F#	sf
8G#L	>
8F#J)	]
=494	=494
!!linebreak:original
4E	p
4r	.
(4E	.
=495	=495
8D#)	.
8r	.
8BB	.
8r	.
[4FF#	.
=496	=496
4FF#]	.
4F#	.
[4F#	.
=497	=497
!LO:TX:b:i:t=cresc.	!
4F#]	.
(4F#	.
4E)	.
=498	=498
4D#	.
4BB	.
[4B	.
=499	=499
4B]	p
[2A	.
=500	=500
4A]	.
!LO:TX:b:i:t=cresc.	!
(12G#L	.
12A	.
12G#J	.
12EL	.
12F#	.
12EJ)	.
=501	=501
(<12C#L	.
12D#	.
12C#J	.
12D#L	.
12E	.
12D#J	mp
12C#L	.
!LO:TX:b:i:t=cresc.	!
12D#	.
12C#J)	.
=502	=502
!!linebreak:original
(12BB#XL	.
12C#	.
12BB#J	.
12C#L	.
12D#	.
12C#J	.
12BBnL	.
12C#	.
12BBJ)	.
=503	=503
(12AAL	f
12BB	.
12AAJ	.
12FF#L	.
12GG#	.
12AAJ	.
12BBL	.
12AA#X	.
12BBJ)	.
=504	=504
4EE	.
4r	.
4r	.
=505	=505
2.r	.
=506	=506
2.r	.
=507	=507
2.r	.
=508	=508
2.r	.
=509	=509
2.r	.
=510	=510
2.r	.
=511	=511
2.r	.
=512	=512
!LO:TX:b:i:t=sempre staccato	!
2.r	.
=513	=513
2.r	.
=514	=514
2.r	.
=515	=515
2.r	.
=516	=516
4r	.
8E'	p
!LO:TX:b:i:t=cresc.	!
8r	.
8BB'	.
8r	.
=517	=517
(8EL	.
8F#J)	.
4G#'	.
[4G#	.
=518	=518
(8G#L]	.
8BJ)	.
4A'	.
4G#'	.
=519	=519
!!linebreak:original
4F#'	.
4E'	.
4F#'	.
=520	=520
(2G#	.
4E)	.
=521	=521
(2F#	.
8G#L	.
8F#J)	.
=522	=522
8EL	.
8E'	f
8F#'	.
8BB'	.
8E'	.
8E'J	.
=523	=523
8D#'L	.
!LO:TX:b:i:t=sempre staccato	!
8C#'	.
8BB'	.
8E'	.
8D#'	.
8C#'J	.
=524	=524
8BB'L	.
8FF#'	.
8AA#X'	.
8FF#'	.
8BB'	.
8FF#'J	.
=525	=525
8C#'L	.
8E'	.
8D#'	.
8E'	.
8D#'	.
8C#'J	.
=526	=526
!!linebreak:original
8BB'L	.
8AA#X'	.
8BB'	.
8C#'	.
8D#'	.
8BB'J	.
=527	=527
8E#X'L	.
8C#'	.
8F#'	.
8G#'	.
8F#'	.
8En'J	.
=528	=528
8D#L	.
8BBJ	.
8E	ff
8r	.
8BB	.
8r	.
=529	=529
(8EL	.
8F#J)	.
4G#'	.
4G#'	.
=530	=530
(8G#L	.
8BJ)	.
8A'	.
8r	.
8G#'	.
8r	.
=531	=531
8F#'	.
8r	.
8E'	.
8r	.
8F#'	.
8r	.
=532	=532
!!linebreak:original
(2G#	.
4E)	.
=533	=533
(2F#	.
8G#L	sf
8F#J)	.
=534	=534
8E	.
8r	.
8BB	.
8r	.
[4E	sf
=535	=535
8E]	.
8r	.
8BB	.
8r	.
[4E	sf
=536	=536
8E]	.
8r	.
8BB	.
8r	.
[4E	sf
=537	=537
8E]	.
8r	.
8BB	.
8r	.
[4E	sf
=538	=538
4E]	.
4BB	.
[4E	sf
=539	=539
4E]	.
4BB	.
[4E	sf
=540	=540
2.E_	>
=541	=541
!!linebreak:original
4E]	p
!LO:TX:b:i:t=legato e sempre	!
(4e	.
4B	.
=542	=542
8eL	.
8f#J)	.
[4g#'	.
4g#']	p
=543	=543
(4.g#	.
8f#L	.
8e	.
8d#J)	.
=544	=544
(4c#	.
4B#X	.
4c#	.
=545	=545
4d#	.
4e	.
4d#)	.
=546	=546
(4c#	.
4Bn	.
4A	.
=547	=547
2.An)	.
=548	=548
(4G#	.
4F#	.
4E	.
=549	=549
4D#	.
4C#	.
4D#)	.
=550	=550
(4E	.
4D#	.
4C#	.
=551	=551
2.BB	.
=552	=552
!!linebreak:original
4E)	.
4r	.
(4EE	.
=553	=553
2FF#	.
8GG#L	.
8FF#J	.
=554	=554
4EE)	.
4r	.
4EE	.
=555	=555
(2FF#	.
8GGnL	.
8FF#J)	.
=556	=556
4EE	.
!LO:TX:b:i:t=dim.	!
(8GGnL	.
8FF#J	.
4EE')	.
=557	=557
(8GGnL	.
8FF#J	.
4EE')	.
(8GGnL	.
8FF#J	.
=558	=558
4EE')	.
(8GGnL	pp
8FF#J	.
4EE')	.
=559	=559
(8GGnL	.
8FF#J	.
4EE')	.
(8GGnL	.
8FF#J)	.
==560	==560
!!linebreak:original
*k[f#]	*
*e:	*
*M2/2	*
*met(c|)	*
!LO:TX:a:B:t=Finale. Presto	!
!LO:TX:a:t=Da Capo	!
4CC'	fp
8r	.
8C'	.
4C'	.
8r	.
8C'	.
=561	=561
4C'	.
8r	.
8C'	.
4C'	.
8r	.
8C'	.
=562	=562
4C'	.
8r	.
8C'	.
4C'	.
8r	.
8C'	.
=563	=563
4C'	.
8r	.
8C'	.
4C'	.
8r	.
8C'	.
=564	=564
4C'	.
8r	.
8C'	.
4C'	.
8r	.
8C'	.
=565	=565
4C'	.
8r	.
8C'	.
4C'	.
8r	.
8C'	.
=566	=566
!!linebreak:original
4C'	.
8r	.
8C'	.
4BB'	.
8r	.
8BB'	.
=567	=567
4BB'	.
!LO:TX:b:i:t=cresc.	!
8r	.
8BB'	.
4BB'	.
8r	.
8BB'	.
=568	=568
4E	.
8r	.
8E	.
4D	.
8r	.
8D	.
=569	=569
4C	.
8r	fp
8c	.
4c	.
8r	.
8c	.
=570	=570
4c	.
8r	.
8c	.
4c	.
8r	.
8c	.
=571	=571
4c	.
8r	.
8c	.
4c	.
8r	.
8c	.
=572	=572
4c'	.
8r	.
8c'	.
4c'	.
8r	.
8c'	.
=573	=573
!!linebreak:original
4c'	.
8r	.
8c'	.
4c'	.
8r	.
8c'	.
=574	=574
4c'	.
8r	.
8c'	.
4c'	.
8r	.
8c'	.
=575	=575
4c'	.
8r	.
8c'	.
4B'	.
8r	.
8B'	.
=576	=576
4B'	.
8r	.
!LO:TX:b:i:t=cresc.	!
8B'	.
4B'	.
8r	.
8B'	.
=577	=577
4e'	.
8r	.
8E'	.
4E'	.
8r	.
8E'	.
=578	=578
4F#'	fp
8r	.
8F#'	.
4F#'	.
8r	.
8F#'	.
=579	=579
4F#'	.
8r	.
8F#'	.
4F#'	.
8r	.
8F#'	.
=580	=580
!!linebreak:original
2F#'	.
!LO:TX:b:i:t=cresc.	!
2D'	.
=581	=581
2G'	.
2GG'	.
=582	=582
4CC' 4C	fp
8r	.
8CC' 8C	.
4CC' 4C	.
8r	.
8CC' 8C	.
=583	=583
4CC' 4C	.
8r	.
8CC' 8C	.
4CC' 4C	.
8r	.
8CC' 8C	.
=584	=584
4CC' 4C	.
8r	.
8CC' 8C	.
4CC' 4C	.
8r	.
8CC' 8C	.
=585	=585
4CC' 4C	.
8r	.
8CC' 8C	.
4CC' 4C	.
8r	.
8CC' 8C	.
=586	=586
4CC' 4C	.
8r	.
8CC' 8C	.
4CC' 4C	.
8r	.
8CC' 8C	.
=587	=587
4CC' 4C	.
8r	.
8CC' 8C	.
4CC' 4C	.
8r	.
8CC' 8C	.
=588	=588
!!linebreak:original
4CC' 4C	.
8r	.
8CC' 8C	.
4BB'	.
8r	.
8BB'	.
=589	=589
4BB'	.
8r	.
!LO:TX:b:i:t=cresc.	!
8BB'	.
4BB'	.
8r	.
8BB'	.
=590	=590
4E'	.
8r	.
8E'	.
4E'	.
8r	.
8E'	.
=591	=591
4F#X'	fp
8r	.
8F#'	.
4F#'	.
8r	.
8F#'	.
=592	=592
4F#X'	.
8r	.
8F#'	.
4F#'	.
8r	.
8F#'	.
=593	=593
!LO:TX:b:i:t=cresc.	!
2F#'	.
2D'	.
=594	=594
2G'	.
2GG'	.
=595	=595
4CC' 4C	fp
8r	.
8CC' 8C	.
4CC' 4C	.
8r	.
8CC' 8C	.
=596	=596
!!linebreak:original
4CC' 4C	.
8r	.
8CC' 8C	.
4CC' 4C	.
8r	.
8CC' 8C	.
=597	=597
4CC' 4C	.
8r	.
8CC' 8C	.
4CC' 4C	.
8r	.
8CC' 8C	.
=598	=598
4CC' 4C	.
8r	.
8CC' 8C	.
4CC' 4C	.
8r	.
8CC' 8C	.
=599	=599
4CC' 4C	.
8r	.
8CC' 8C	.
4CC' 4C	.
8r	.
8CC' 8C	.
=600	=600
4CC' 4C	.
8r	.
8CC' 8C	.
4CC' 4C	.
8r	.
8CC' 8C	.
=601	=601
!LO:TX:b:i:t=cresc.	!
4CC' 4C	.
8r	.
8c'	.
4B'	.
8r	.
8B'	.
=602	=602
4B'	.
8r	.
8B'	.
4A'	.
8r	.
8A'	.
=603	=603
!!linebreak:original
4A'	.
8r	.
8A'	.
4G'	.
8r	.
8G'	.
=604	=604
4F#'	.
8r	.
8F#'	.
4E'	.
8r	.
8E'	.
=605	=605
4C'	.
8r	.
8C'	.
4BB'	.
8r	.
8BB'	.
=606	=606
4AA'	.
8r	.
8AA'	.
4BB'	.
8r	.
8BB'	.
=607	=607
4GG	f
4r	.
4G	.
4r	.
=608	=608
4F#	.
4r	.
4E	.
4r	.
=609	=609
4C	.
4r	.
4BB	.
4r	.
=610	=610
4AA	.
4r	.
4BB	.
4r	.
=611	=611
!!linebreak:original
4EE	.
4r	.
2r	.
=612	=612
4BB	.
4r	.
2r	.
=613	=613
4E	.
4r	.
2r	.
=614	=614
4BB	.
4r	.
2r	.
=615	=615
8E	.
8r	.
(8EL	.
8F#J	.
8G')	.
8r	.
(8AL	.
8BJ	.
=616	=616
8c')	.
8r	.
(8cL	.
8dJ	.
2eT)	.
=617	=617
4d	.
4r	.
2r	.
=618	=618
1r	.
=619	=619
8C	.
8r	.
(<8CL	.
8DJ	.
8E')	.
8r	.
(8F#XL	.
8GJ	.
=620	=620
!!linebreak:original
8A')	.
8r	.
(8AL	.
8BJ	.
2cT)	.
=621	=621
4B	.
4r	.
2r	.
=622	=622
2r	.
4r	.
4B	.
=623	=623
(4A#X	.
8A#L	.
8BJ	.
[2c#X	sf
=624	=624
4c#'])	.
(8BL	.
8A#XJ	.
4B	.
4G	.
=625	=625
4F#)	.
4f#	.
4f#	.
4f#	.
=626	=626
4f#	.
4f#	.
4f#	.
4f#	.
=627	=627
4f#	.
4r	.
2r	.
=628	=628
2r	.
4r	.
(4FF#	.
=629	=629
4BB)	p
4r	.
(4BB	.
4FF#)	.
=630	=630
!!linebreak:original
2r	.
(4F#	.
4AA#X)	.
=631	=631
2r	.
(4F#	.
4BB)	.
=632	=632
2r	.
(4G	.
4E)	.
=633	=633
2r	.
(4EE	.
4CC)	.
=634	=634
2r	.
(4FF#	.
4BB)	.
=635	=635
2r	.
(4FF#	.
4AA#X)	.
=636	=636
[1BB	<
=637	=637
(4BB]	.
4D	.
4F#	.
4B	.
=638	=638
4A#X	[
4c#X)	.
4r	p
(4c#	.
=639	=639
4B	.
4d)	.
4r	.
(4d	.
=640	=640
4cn	.
4e)	.
4r	.
(4e	.
=641	=641
!!linebreak:original
4E	.
4G	.
4c	.
4e	.
=642	=642
4d	.
4B)	.
4r	.
(4B	.
=643	=643
4c#X	.
4F#)	.
4r	.
4F#	.
=644	=644
1B	pp
=645	=645
1B	.
=646	=646
1B	.
=647	=647
1B	.
=648	=648
4B	.
4r	.
2r	.
=649	=649
1r	.
=650	=650
2r	.
4r	.
(<8BBL	.
8C#XJ	pp
=651	=651
8D')	.
8r	.
4r	.
2r	.
=652	=652
1r	.
=653	=653
1r	.
=654	=654
4r	.
(<8BBL	.
8CJ	.
8D')	.
8r	.
4r	.
=655	=655
1r	.
=656	=656
1r	.
=657	=657
!!linebreak:original
2r	.
4r	.
(8DL	.
8EJ	.
=658	=658
8Fn')	.
8r	.
2r	.
(8DDL	.
8EEJ	.
=659	=659
8FFn')	.
8r	.
2r	.
(8DDL	.
8EEJ	.
=660	=660
8FFn')	.
8r	.
2r	.
(8DDL	.
8EEJ	.
=661	=661
8FFn')	.
8r	.
2r	.
(8DDL	.
8EEJ	.
=662	=662
4FFn')	.
(8DDL	.
8EEJ	.
4FF')	.
!LO:TX:b:i:t=cresc.	!
(8DDL	.
8EEJ	.
=663	=663
4FFn')	.
(8DDL	.
8EEJ	.
4FF')	.
(8DDL	.
8EEJ	.
=664	=664
!!linebreak:original
!LO:TX:b:i:t=piu cresc.	!
4FFn')	.
(8DDL	.
8EEJ	.
4FF')	.
(8DDL	.
8EEJ	.
=665	=665
8FFnL)	.
(8DD	.
8EE	.
8FFJ	.
8GGL	.
8FF	.
8EE	.
8DDJ)	.
=666	=666
4CC'	fp
8r	.
8C'	.
4C'	.
8r	.
8C'	.
=667	=667
4C'	.
8r	.
8C'	.
4C'	.
8r	.
8C'	.
=668	=668
4C'	.
8r	.
8C'	.
4C'	.
8r	.
8C'	.
=669	=669
4C'	.
8r	.
8C'	.
4C'	.
8r	.
8C'	.
=670	=670
!!linebreak:original
4C'	.
8r	.
8C'	.
4C'	.
8r	.
8C'	.
=671	=671
4C'	.
8r	.
8C'	.
4C'	.
8r	.
8C'	.
=672	=672
4C'	.
8r	.
8C'	.
4BB'	.
8r	.
8BB'	.
=673	=673
4BB'	.
!LO:TX:b:i:t=cresc.	!
8r	.
8BB'	.
4BB'	.
8r	.
8BB'	.
=674	=674
4E'	.
8r	.
8E'	.
4D'	.
8r	.
8D'	.
=675	=675
4C'	fp
8r	.
8c'	.
4c'	.
8r	.
8c'	.
=676	=676
4c'	.
8r	.
8c'	.
4c'	.
8r	.
8c'	.
=677	=677
!!linebreak:original
4c'	.
8r	.
8c'	.
4c'	.
8r	.
8c'	.
=678	=678
4c'	.
8r	.
8c'	.
4c'	.
8r	.
8c'	.
=679	=679
4c'	.
8r	.
8c'	.
4c'	.
8r	.
8c'	.
=680	=680
4c'	.
8r	.
8c'	.
4c'	.
8r	.
8c'	.
=681	=681
4c'	.
8r	.
8c'	.
4B'	.
8r	.
8B'	.
=682	=682
4B'	.
!LO:TX:b:i:t=cresc.	!
8r	.
8B'	.
4B'	.
8r	.
8B'	.
=683	=683
4e'	.
8r	.
8E'	.
4E'	.
8r	.
8E'	.
=684	=684
!!linebreak:original
4F#'	.
8r	fp
8F#'	.
4F#'	.
8r	.
8F#'	.
=685	=685
4F#'	.
8r	.
8F#'	.
4F#'	.
8r	.
8F#'	.
=686	=686
!LO:TX:b:i:t=cresc.	!
2F#'	.
2D'	.
=687	=687
2G'	.
2GG'	.
=688	=688
4C	.
8r	fp
8CC 8C	.
4CC 4C	.
8r	.
8CC 8C	.
=689	=689
4CC' 4C	.
8r	.
8CC' 8C	.
4CC' 4C	.
8r	.
8CC' 8C	.
=690	=690
4CC' 4C	.
8r	.
8CC' 8C	.
4CC' 4C	.
8r	.
8CC' 8C	.
=691	=691
4CC' 4C	.
8r	.
8CC' 8C	.
4CC' 4C	.
8r	.
8CC' 8C	.
=692	=692
!!linebreak:original
4CC' 4C	.
8r	.
8CC' 8C	.
4CC' 4C	.
8r	.
8CC' 8C	.
=693	=693
4CC' 4C	.
8r	.
8CC' 8C	.
4CC' 4C	.
8r	.
8CC' 8C	.
=694	=694
4CC' 4C	.
8r	.
8CC' 8C	.
4BB'	.
8r	.
8BB'	.
=695	=695
4BB'	.
!LO:TX:b:i:t=cresc.	!
8r	.
8BB'	.
4BB'	.
8r	.
8BB'	.
=696	=696
4E'	.
8r	.
8EE'	.
4EE'	.
8r	.
8EE'	.
=697	=697
4FF#'	fp
8r	.
8F#'	.
4F#'	.
8r	.
8F#'	.
=698	=698
4F#'	.
8r	.
8F#'	.
4F#'	.
8r	.
8F#'	.
=699	=699
!!linebreak:original
!LO:TX:b:i:t=cresc.	!
2F#'	.
2D'	.
=700	=700
2G'	.
2GG'	.
=701	=701
4CC' 4C	fp
8r	.
8CC' 8C	.
4CC' 4C	.
8r	.
8CC' 8C	.
=702	=702
4CC' 4C	.
8r	.
8CC' 8C	.
4CC' 4C	.
8r	.
8CC' 8C	.
=703	=703
4CC' 4C	.
8r	.
8CC' 8C	.
4CC' 4C	.
8r	.
8CC' 8C	.
=704	=704
4CC' 4C	.
8r	.
8CC' 8C	.
4CC' 4C	.
8r	.
8CC' 8C	.
=705	=705
1C	.
=706	=706
1Fn	sf
=707	=707
2D	.
2B	.
=708	=708
2G	sf
2d	sf
=709	=709
!!linebreak:original
8c'L	ff
!LO:TX:b:i:t=sempre.	!
8B'	.
8A'	.
8G'J	.
8A'L	.
8G'	.
8Fn'	.
8E'J	.
=710	=710
8Fn'L	.
8E'	.
8D'	.
8C'J	.
8F'L	.
8E'	.
8D'	.
8C'J	.
=711	=711
8D'L	.
8C'	.
8BB'	.
8AA'J	.
8BB'L	.
8AA'	.
8GG#X'	.
8FF#X'J	.
=712	=712
8GG#X'L	.
8AA'	.
8BB'	.
8AA'J	.
8GG#'L	.
8EE'	.
8FF#X'	.
8GG#'J	.
=713	=713
1AA	.
=714	=714
1D	.
=715	=715
2BB	sf
2G#X	.
=716	=716
2E	sf
2B	sf
=717	=717
!!linebreak:original
8A'L	sf
8Gn'	.
8Fn'	.
8E'J	.
8A'L	.
8G'	.
8F'	.
8E'J	.
=718	=718
8Fn'L	.
8E'	.
8D'	.
8C'J	.
8D'L	.
8C'	.
8BB-X'	.
8AA'J	.
=719	=719
8BB-X'L	.
8AA'	.
8GG'	.
8FFn'J	.
8GG'L	.
8FF'	.
8EE'	.
8DD'J	.
=720	=720
8EE'L	.
8FFn'	.
8GG'	.
8FF'J	.
8EE'L	.
8CC'	.
8DD'	.
8EE'J	.
=721	=721
4FFn	.
4r	.
2r	.
=722	=722
!!linebreak:original
4r	.
8DD'L	.
8EE-X'J	.
8FFn'L	.
8DD'	.
8EE-'	.
8FF'J	.
=723	=723
4EE-X	.
4r	.
2r	.
=724	=724
4r	.
8C#X'L	.
8D'J	.
8En'L	.
8C#'	.
8D'	.
8E'J	.
=725	=725
2Fn	.
2D	.
=726	=726
2BB	.
2Fn	.
=727	=727
2E-X	sf
2C	.
=728	=728
2AA	.
2FFn	.
=729	=729
[1BB-X	fp
=730	=730
1BB-_	pp
=731	=731
1BB-_	.
=732	=732
1BB-]	.
=733	=733
[1BB-X	.
=734	=734
!!linebreak:original
1BB-X_	.
=735	=735
!LO:TX:b:i:t=cresc.	!
1BB-_	.
=736	=736
2.BB-]	.
4BB-X	.
=737	=737
4AA'	ff
4GG'	.
(4FFn	.
8EEL	.
8FFJ)	.
=738	=738
4GG'	.
4FFn'	.
(4EE	.
8DDL	.
8EEJ)	.
=739	=739
4FFn'	.
4EE'	.
(4DD	.
8CC#XL	.
8DDJ)	.
=740	=740
4EE'	.
4FFn'	.
(4GG	.
8AAL	.
8GGJ)	.
=741	=741
4FFn	.
4r	.
2r	.
=742	=742
2r	.
4r	.
4A	.
=743	=743
4B-X'	.
4A'	.
(4G	.
8F#XL	.
8GJ)	.
=744	=744
!!linebreak:original
4A'	.
4G'	.
(4F#X	.
8EL	.
8F#J)	.
=745	=745
2.G	.
4GG	.
=746	=746
2.G	.
4GG	.
=747	=747
2.G	.
4GG	.
=748	=748
4G	.
4GG	.
4G	.
4GG	.
=749	=749
1C	.
=750	=750
4C#X	.
(<8EL	.
8DJ	.
4C#	.
8BBL	.
8AAJ)	.
=751	=751
1D	.
=752	=752
4D#X	.
(8F#XL	.
8EJ	.
4D#	.
8C#XL	.
8BBJ)	.
=753	=753
8E	.
8r	.
(8EL	.
8F#J	.
8G')	.
8r	.
(8GL	.
8AJ	.
=754	=754
!!linebreak:original
8B')	.
8r	.
(8c#XL	.
8d#XJ	.
2eT)	.
=755	=755
[1dn	.
=756	=756
1d]	.
=757	=757
8c	.
8r	.
(>8CL	.
8DJ	.
8E')	.
8r	.
(8FnL	.
8GJ	.
=758	=758
8A')	.
8r	.
(8AL	.
8BJ	.
2cT)	.
=759	=759
[1B	.
=760	=760
1B]	.
=761	=761
4A	.
4r	.
2r	.
=762	=762
2r	.
4r	.
(4A	.
=763	=763
4G)	.
4r	.
2r	.
=764	=764
!!linebreak:original
2r	.
4r	.
4G	.
=765	=765
4F#	.
4r	.
2r	.
=766	=766
4E	.
4r	.
2r	.
=767	=767
4D#X	.
4r	.
2r	.
=768	=768
4E	.
4e	.
4C	.
4c	.
=769	=769
4B	.
(8d#XL	.
8eJ)	.
[2f#	.
=770	=770
4f#]	.
(8eL	.
8d#XJ	.
4e	.
4c)	.
=771	=771
4B	.
4B	.
4B	.
4B	.
=772	=772
4B	.
4B	.
4B	.
4B	.
=773	=773
!!linebreak:original
4B	.
4r	.
2r	.
=774	=774
2r	.
4r	.
(4BB	.
=775	=775
4E)	p
4r	.
(4E	.
4BB)	.
=776	=776
2r	.
(4B	.
4D#X)	.
=777	=777
2r	.
(4B	.
4E)	.
=778	=778
2r	.
(4c	.
4A)	.
=779	=779
2r	.
(4AA	.
4FFn)	.
=780	=780
2r	.
(4BB	.
4E)	.
=781	=781
2r	.
(<4BB	.
4D#X)	.
=782	=782
!LO:TX:b:i:t=cresc.	!
(4E	.
4G	.
4B	.
4e)	.
=783	=783
!!linebreak:original
*clefG2	*
(4g	.
4b	.
4ee	.
4gg	.
=784	=784
4ff#	p
4aa)	.
4r	.
(4aa	.
=785	=785
4gg	.
4bb)	.
4r	.
(4bb	.
=786	=786
4aa	.
4ccc)	.
4r	.
(4ccc	.
=787	=787
4cc)	.
(4ffn	.
4aa	.
4ccc	.
=788	=788
4bb	.
4gg)	.
4r	.
(4gg	.
=789	=789
4aa	.
4ff#X)	.
4r	.
(4ff#	.
=790	=790
4gg	.
4ee)	.
2r	.
*clefF4	*
=791	=791
1AA	f
=792	=792
1GG	.
=793	=793
!!linebreak:original
1FFn	f
=794	=794
1CC	f
=795	=795
(4AA	p
4C	.
4Fn	.
4A	.
=796	=796
4G	.
4E)	.
4r	.
(4E	.
=797	=797
4F#X	.
4BB)	.
4r	.
4BB	.
=798	=798
4E	.
4r	.
2r	.
=799	=799
1AA	f
=800	=800
1GG	f
=801	=801
1FFn	f
=802	=802
1CC	.
=803	=803
(4AA	f
4C	p
4Fn	.
4A	.
=804	=804
4G	.
4E)	.
4r	.
(4E	.
=805	=805
!!linebreak:original
4F#X	.
4BB)	.
4r	.
4BB	.
=806	=806
1EE	pp
=807	=807
1EE	.
=808	=808
1EE	.
=809	=809
1EE	.
=810	=810
4EE	.
4r	.
2r	.
=811	=811
1r	.
=812	=812
2r	.
4r	.
(8EL	pp
8F#J	.
=813	=813
4G')	.
4r	.
2r	.
=814	=814
1r	.
=815	=815
1r	.
=816	=816
2r	.
4r	.
(8EL	.
8FnJ	.
=817	=817
4G')	.
2r	.
(8EL	.
8FnJ	.
=818	=818
!!linebreak:original
4G')	.
4r	.
2r	.
=819	=819
2r	.
4r	.
(<8BBL	.
8CJ	.
=820	=820
4D')	.
4r	.
2r	.
=821	=821
2r	.
4r	.
(8GGL	.
8AAJ	.
=822	=822
4BB')	.
2r	.
(8AAL	.
8BBJ	.
=823	=823
4C')	.
2r	.
(<8BBL	.
8CJ	.
=824	=824
4D')	.
2r	.
(<8CL	.
8DJ	.
=825	=825
4E')	.
2r	.
(8DL	.
8EJ	.
=826	=826
!!linebreak:original
4Fn')	.
2r	.
(8DDL	.
8EEJ	.
=827	=827
4FFn')	.
2r	.
(8DDL	.
8EEJ	.
=828	=828
4FFn')	.
2r	.
(8DDL	.
8EEJ	.
=829	=829
4FFn')	.
2r	.
(8DDL	.
8EEJ	.
=830	=830
4FFn')	.
(8DDL	.
!LO:TX:b:i:t=cresc.	!
8EEJ	.
4FF')	.
(8DDL	.
8EEJ	.
=831	=831
4FFn')	.
(8DDL	.
8EEJ	.
4FF')	.
(8DDL	.
8EEJ	.
=832	=832
4FFn')	.
!LO:TX:b:i:t=piu cresc.	!
(8DDL	.
8EEJ	.
4FF')	.
(8DDL	.
8EEJ	.
=833	=833
!!linebreak:original
8FFn'L)	.
(8DD	.
8EE	.
8FFJ	.
8GGL	.
8FF	.
8EE	.
8DDJ)	.
=834	=834
4CC'	.
8r	fp
8C'	.
4C'	.
8r	.
8C'	.
=835	=835
4C'	.
8r	.
8C'	.
4C'	.
8r	.
8C'	.
=836	=836
4C'	.
8r	.
8c'	.
4c'	.
8r	.
8c'	.
=837	=837
4c'	.
8r	.
8c'	.
4c'	.
8r	.
8c'	.
=838	=838
4c'	.
8r	.
8c'	.
4c'	.
8r	.
8c'	.
=839	=839
!!linebreak:original
4c'	.
8r	.
8c'	.
4c'	.
8r	.
8c'	.
=840	=840
4c'	.
8r	.
8c'	.
4B'	.
8r	.
8B'	.
=841	=841
4B'	.
!LO:TX:b:i:t=cresc.	!
8r	.
8B'	.
4B'	.
8r	.
8B'	.
=842	=842
4E'	.
8r	.
8E'	.
4D'	.
8r	.
8D'	.
=843	=843
4C'	.
8r	fp
8C'	.
4C'	.
8r	.
8C'	.
=844	=844
4C'	.
8r	.
8C'	.
4C'	.
8r	.
8C'	.
=845	=845
4C'	.
8r	.
8C'	.
4C'	.
8r	.
8C'	.
=846	=846
!!linebreak:original
4C'	.
8r	.
8C'	.
4C'	.
8r	.
8C'	.
=847	=847
4C'	.
8r	.
8C'	.
4C'	.
8r	.
8C'	.
=848	=848
4C'	.
8r	.
8C'	.
4C'	.
8r	.
8C'	.
=849	=849
!LO:TX:b:i:t=cresc.	!
4C'	.
8r	.
8C'	.
4BB'	.
8r	.
8BB'	.
=850	=850
4BB'	.
8r	.
8BB'	.
4AA'	.
8r	.
8AA'	.
=851	=851
4AA'	.
8r	.
8AA'	.
4GG'	.
8r	.
8GG'	.
=852	=852
4F#'	.
8r	.
8F#'	.
4E'	.
8r	.
8E'	.
=853	=853
!!linebreak:original
4C'	.
8r	.
8C'	.
4BB'	.
8r	.
8BB'	.
=854	=854
4AA'	.
8r	.
8AA'	.
4BB'	.
8r	.
8BB'	.
=855	=855
4E	.
4r	f
4G	.
4r	.
=856	=856
4F#	.
4r	.
4E	.
4r	.
=857	=857
4C	.
4r	.
4BB	.
4r	.
=858	=858
4AA	.
4r	.
4BB	.
4r	.
=859	=859
4E	.
4r	ff
2r	.
=860	=860
4BB	.
4r	.
2r	.
=861	=861
!!linebreak:original
4EE	.
4r	.
2r	.
=862	=862
4BB	.
4r	.
2r	.
=863	=863
!LO:TX:b:i:t=sempre.	!
4E	.
4r	.
2r	f
=864	=864
4D#X	.
8r	.
8E	.
4F#	.
8r	.
8B	.
=865	=865
4E	.
4r	.
2r	.
=866	=866
4BB	.
8r	.
8C	.
4Dn	.
8r	.
8G	.
=867	=867
4C	.
4r	.
2r	.
=868	=868
4GG#X	.
8r	.
8AA	.
4BB	.
8r	.
8E	.
=869	=869
4AA	.
4r	.
2r	.
=870	=870
!!linebreak:original
4E	.
4r	.
2r	.
=871	=871
4BB	.
4r	.
2r	.
=872	=872
4EE	.
4r	.
2r	.
=873	=873
1r	.
=874	=874
(4EE	.
8FF#L	p
!LO:TX:b:i:t=cresc.	!
8GG#XJ	.
4AA	.
8BBL	.
8GG#J)	.
=875	=875
(1AA	.
=876	=876
2BB)	.
4EE	p
4EE	.
=877	=877
[1EE	.
=878	=878
!LO:TX:b:i:t=cresc.	!
(4EE]	.
8FF#L	.
8GG#XJ	.
4AA	.
8BBL	.
8GG#J)	.
=879	=879
[1AA	.
=880	=880
(<4AA]	.
8BB-XL	p
8CJ	.
4D	.
8BB-L	.
8AAJ)	.
=881	=881
!!linebreak:original
[1GG	.
=882	=882
!LO:TX:b:i:t=dim.	!
(4GG]	.
8EL	.
8FnJ	.
4G	.
8EL	.
8C#XJ)	.
=883	=883
4D	.
(>8DL	.
8EJ	.
4Fn	.
8DL	.
8CnJ)	.
=884	=884
4BB	.
(>8DL	.
8EJ	.
4Fn	.
8DL	.
8BBJ)	.
=885	=885
4C	.
(8CL	.
8DJ	.
4E	.
8CL	.
8BBJ)	.
=886	=886
4AA#X	.
(8AA#L	.
8BBJ	.
4C#X	.
4BB)	.
=887	=887
4BB	.
4r	pp
2r	.
=888	=888
!LO:TX:b:i:t=sempre.	!
4BB	.
4r	pp
2r	.
=889	=889
!!linebreak:original
4BB	.
4r	.
2r	.
=890	=890
4BB	.
4r	.
2r	.
=891	=891
4B	.
4r	.
2r	.
=892	=892
4B	.
4r	.
2r	.
=893	=893
4B	.
4r	.
2r	.
=894	=894
4B	.
2r	.
(8dd#XL	.
8eeJ	.
*clefG2	*
=895	=895
!LO:TX:b:i:t=cresc.	!
4ff#')	.
8r	.
8ee'	.
4dd#X'	.
(8ff#L	.
8ggJ	.
=896	=896
!LO:TX:b:i:t=cresc.	!
4aa')	.
8r	.
8gg'	.
4ff#'	.
(8eeL	.
8ff#J	.
=897	=897
4gg')	.
8r	.
8ff#'	.
4ee'	.
(8ggL	.
8aaJ	.
=898	=898
!!linebreak:original
4bb')	.
8r	.
8aa'	.
4gg'	.
4r	.
*clefF4	*
=899	=899
8A	f
8r	.
4r	.
2r	.
=900	=900
2r	.
4r	.
(8FFnL	.
8GGJ	.
=901	=901
4AA)	ff
8r	.
8GG	.
4FFn	.
4r	.
=902	=902
1r	.
=903	=903
[1BB	.
=904	=904
1BB_	p
=905	=905
1BB_	.
=906	=906
!LO:TX:b:i:t=cresc.	!
2BB]	.
(2BB-X	.
=907	=907
4AA)	f
4r	.
2r	.
=908	=908
2r	.
4r	.
(8FFnL	ff
8GGJ	.
=909	=909
!!linebreak:original
4AA)	.
8r	.
8GG	.
4FFn	.
4r	.
=910	=910
1r	.
=911	=911
[1BB	.
=912	=912
1BB_	p
=913	=913
1BB_	.
=914	=914
2BB]	.
!LO:TX:b:i:t=cresc.	!
(2BB-X	.
=915	=915
2AA	.
2AA-X	.
=916	=916
2GG	.
2GG-X	.
=917	=917
2FFn	.
2EE)	.
=918	=918
1DD#X	sf
=919	=919
4EE	[
4EE	p
2r	.
=920	=920
4C	.
!LO:TX:b:i:t=cresc.	!
4C	.
2r	.
=921	=921
4AA	.
4AA	.
2r	.
=922	=922
4BB	.
4BB	.
2r	.
=923	=923
!!linebreak:original
8EEL	.
8EE	.
8EE	.
8EEJ	.
2r	.
=924	=924
2C	.
2r	.
=925	=925
2AA	.
2r	.
=926	=926
2BB	.
2r	.
=927	=927
!LO:TX:b:i:t=piu cresc.	!
2E	.
2E	.
=928	=928
2E	.
2E	.
=929	=929
2D	.
2D	.
=930	=930
2GG	.
2GG	.
=931	=931
4CC' 4C	ff
8r	.
8CC' 8C	.
4CC' 4C	.
8r	.
8CC' 8C	.
=932	=932
!LO:TX:b:i:t=sempre.	!
4CC' 4C	.
8r	.
8CC' 8C	.
4CC' 4C	ff
8r	.
8CC' 8C	.
=933	=933
!!linebreak:original
4CC' 4C	.
8r	.
8CC' 8C	.
4CC' 4C	.
8r	.
8CC' 8C	.
=934	=934
4CC' 4C	.
8r	.
8CC' 8C	.
4CC' 4C	.
8r	.
8CC' 8C	.
=935	=935
4CC' 4C	.
8r	.
8CC' 8C	.
4CC' 4C	.
8r	.
8CC' 8C	.
=936	=936
4CC' 4C	.
8r	.
8CC' 8C	.
4CC' 4C	.
8r	.
8CC' 8C	.
=937	=937
4C'	.
8r	.
8C'	.
4BB'	.
8r	.
8BB'	.
=938	=938
4BB'	.
8r	.
8BB'	.
4AA'	.
8r	.
8AA'	.
=939	=939
!!linebreak:original
4AA'	.
8r	.
8A'	.
4G'	.
8r	.
8G'	.
=940	=940
4F#'	.
8r	.
8F#'	.
4E'	.
8r	.
8E'	.
=941	=941
4C'	.
8r	.
8C'	.
4BB'	.
8r	.
8BB'	.
=942	=942
4AA'	.
8r	.
8AA'	.
4BB'	.
8r	.
8BB'	.
=943	=943
4EE'	sf
!LO:TX:a:B:t=Piu presto	!
8r	.
8E'	.
4E'	.
8r	.
8E'	.
=944	=944
4E	.
4r	.
2r	.
=945	=945
4EE'	sf
8r	.
8E'	.
4E'	.
8r	.
8E'	.
=946	=946
!!linebreak:original
4E	.
4r	.
2r	.
=947	=947
4EE'	.
8r	sf
8E'	.
4E'	.
8r	.
8E'	.
=948	=948
4E	.
4r	.
2r	.
=949	=949
4EE'	.
8r	sf
8E'	.
4E'	.
8r	.
8E'	.
=950	=950
4E	.
4r	.
4r	.
8r	.
8E	.
=951	=951
4E	.
4r	sf
4r	.
8r	.
8BB	.
=952	=952
4E	.
4r	sf
4r	.
8r	.
8BB	.
=953	=953
4E	.
4r	sf
4r	.
8r	.
!LO:TX:b:i:t=sempre.	!
8BB	.
=954	=954
!!linebreak:original
4E	.
4r	ff
4r	.
8r	.
8C	.
=955	=955
4Fn	.
4r	.
4r	.
8r	.
8D	.
=956	=956
4G'	.
8r	.
8E'	.
4A'	.
8r	.
8F#X'	.
=957	=957
4B'	.
8r	.
8G'	.
4c'	.
8r	.
8A'	.
=958	=958
4d'	.
8r	.
8B'	.
4E'	.
8r	.
8B'	.
=959	=959
4E'	.
8r	.
8B'	.
4E'	.
8r	.
8B'	.
=960	=960
4E'	.
8r	.
8BB'	.
4E'	.
8r	.
8BB'	.
=961	=961
!!linebreak:original
4E'	.
8r	.
8BB'	.
4E'	.
8r	.
8BB'	.
=962	=962
4E'	.
8r	.
8BB'	.
4EE'	.
8r	.
8BB'	.
=963	=963
4EE'	.
8r	.
8BB'	.
4EE'	.
8r	.
8BB'	.
=964	=964
4EE	.
4r	.
4BB	.
4r	.
=965	=965
4E	.
4r	.
4BB	.
4r	.
=966	=966
4E	.
4r	.
2r	.
=967	=967
4BB	.
4r	.
2r	.
=968	=968
4EE	.
4r	.
2r	.
==	==
*-	*-
!!!RDF**kern: > = above
!!!RDF**kern: < = below
